!!!!SEGMENT: pl-kk--kk-i-287--001_anonim--sint-lumbi-vestri.krn
!!!cenid: 17xx:2102
!!!COM: Anonim
!!!COM-rismID: pe30004985
!!!CDT:
!!!CNT:
!!!OTL: Sint lumbi vestri
!!!PDT:
!!!AGN: Sacred
!!!SMS-siglum: PL-Kk
!!!SMS-shelfmark: Kk.I.287
!!!SMS-shelfwork: 001 W
!!!SMS-variant:
!!!SMS-altvar:
!!!NIFC-rismSourceID: 1001147593
!!!NIFC-rismChildID: 1001147599
!!!NIFC-islandoraID: pl-kk:4995
!!!URL-pdf-islandora: https://repozytorium.nifc.pl/islandora/object/pl-kk%3A4995/datastream/PDF/view
!!!URL-scan: https://polish.musicsources.pl/pl/lokalizacje/galeria/rekopisy/5905 @EN{Scan on Polish Music Sources Website} @PL{Skany w portalu Dziedzictwo Muzyki Polskiej w otwartym dostępie}
!!!ONB-nifc: UWAGA: utwory w zbiorze: 1. Sint lumbi vestri, 2. Iste est qui ante Deum
!!!AIN: 1 alto 2 empty 1 tenor 1 vox
!!!key:
**kern	**text	**kern	**text	**kern	**text	**kern	**text	**kern	**text
*part5	*part5	*part4	*part4	*part3	*part3	*part2	*part2	*part1	*part1
*staff5	*staff5	*staff4	*staff4	*staff3	*staff3	*staff2	*staff2	*staff1	*staff1
*Iempty	*	*Iempty	*	*Itenor	*	*Ialto	*	*Ivox	*
*I"Baſso Ripieno.	*	*I"Baſso.	*	*I"Tenore.	*	*I"Alto.	*	*I"Canto.	*
*I'B.	*	*I'B.	*	*I'T.	*	*I'A.	*	*I'S.	*
*clefF4	*	*clefF4	*	*clefC4	*	*clefC3	*	*clefC1	*
*k[b-]	*	*k[b-]	*	*k[b-]	*	*k[b-]	*	*k[b-]	*
*F:	*	*F:	*	*F:	*	*F:	*	*F:	*
*M2/1	*	*M2/1	*	*M2/1	*	*M2/1	*	*M2/1	*
*met(C|)	*	*met(C|)	*	*met(C|)	*	*met(C|)	*	*met(C|)	*
=1-	=1-	=1-	=1-	=1-	=1-	=1-	=1-	=1-	=1-
!LO:TX:a:t=Lente	!	!LO:TX:a:t=Lente	!	!	!	!	!	!LO:TX:b:t=P:problem=Inicjał "S" przed kluczem	!
!LO:TX:t=P:problem=kreska pseudotaktowa	!	!LO:TX:t=P:problem=kreska pseudotaktowa	!	!	!	!	!	!LO:TX:t=P:problem=kreska pseudotaktowa	!
!LO:TX:a:t=P:problem=znaki BB- B-	!	!LO:TX:a:t=P:problem=znaki BB- B-	!	!	!	!	!	!LO:TX:a:t=P:global:problem=rozdzielacz słów	!
1r	.	1r	.	00r	.	0r	.	1dd,<	Sint
*	*	*	*	*	*	*	*	*2\right	*
!LO:TX:b:t=P:problem=Inicjał "S" przed kluczem	!	!LO:TX:b:t=P:problem=Inicjał "S" przed kluczem	!	!	!	!	!	!	!
!LO:TX:a:t=P:global:problem=rozdzielacz słów	!	!	!	!	!	!	!	!	!
!	!	!LO:TX:t=P:problem=kreska pseudotaktowa	!	!	!	!	!	!	!
1G,<	Sint	1G	Sint	.	.	.	.	(2g\	lum-
!	!	!	!	!	!	!	!	!LO:TX:t=P:problem=kreska pseudotaktowa	!
.	.	.	.	.	.	.	.	2b-\)	.
=2-	=2-	=2-	=2-	=2-	=2-	=2-	=2-	=2-	=2-
*2\right	*	*2\right	*	*	*	*	*	*	*
!	!	!	!	!	!	!LO:TX:t=P:problem=kreska pseudotaktowa	!	!	!
(2D\	Lum-	(2D\	lum-	.	.	1r	.	(2a\	-bi
!	!	!LO:TX:t=P:problem=kreska pseudotaktowa	!	!	!	!	!	!LO:TX:t=P:problem=kreska pseudotaktowa	!
2F\)	.	2F\)	.	.	.	.	.	2f,</)	.
!	!	!LO:TX:a:t=P:problem=♮ above	!	!	!	!LO:TX:b:t=P:problem=Inicjał "S" przed kluczem	!	!	!
!	!	!	!	!	!	!LO:TX:a:t=P:global:problem=rozdzielacz słów	!	!	!
!	!	!	!	!	!	!LO:TX:t=P:problem=kreska pseudotaktowa	!	!LO:TX:t=P:problem=kreska pseudotaktowa	!
(2En\	-bi	(2En\	-bi	.	.	1g,<	Sint	(1cc	Ve-
!LO:TX:t=P:problem=kreska pseudotaktowa	!	!LO:TX:t=P:problem=kreska pseudotaktowa	!	!	!	!	!	!	!
!	!	!LO:TX:a:t=P:global:problem=rozdzielacz słów	!	!	!	!	!	!	!
2C/)	.	2C,</)	.	.	.	.	.	.	.
=3-	=3-	=3-	=3-	=3-	=3-	=3-	=3-	=3-	=3-
*	*	*	*	*	*	*2\right	*	*	*
!	!	!	!	!LO:TX:t=P:problem=kreska pseudotaktowa	!	!	!	!LO:TX:t=P:problem=kreska pseudotaktowa	!
1G	Ve-	1G	Ve-	0r	.	(2d\	lum-	1b-)	.
!	!	!	!	!	!	!LO:TX:t=P:problem=kreska pseudotaktowa	!	!	!
.	.	.	.	.	.	2g\)	.	.	.
!	!	!LO:TX:t=P:problem=kreska pseudotaktowa	!	!	!	!	!	!LO:TX:t=P:problem=kreska pseudotaktowa	!
0D	.	0D	.	.	.	(2fn\	-bi	1a	.
!	!	!	!	!	!	!LO:TX:t=P:problem=kreska pseudotaktowa	!	!	!
.	.	.	.	.	.	2d\)	.	.	.
=4-	=4-	=4-	=4-	=4-	=4-	=4-	=4-	=4-	=4-
!	!	!	!	!LO:TX:t=P:problem=kreska pseudotaktowa	!	!	!	!	!
!	!	!	!	!LO:TX:b:t=P:problem=Inicjał "S" przed kluczem	!	!	!	!	!
.	.	.	.	1A	Sint	4a\	Ve-	2ff,<\	-stri
.	.	.	.	.	.	4g\	.	.	.
!	!	!	!	!	!	!LO:TX:t=P:problem=kreska pseudotaktowa	!	!LO:TX:t=P:problem=kreska pseudotaktowa	!
.	.	.	.	.	.	[<2f\	.	<2.dd\	prae-
!LO:TX:t=P:problem=kreska pseudotaktowa	!	!LO:TX:t=P:problem=kreska pseudotaktowa	!	!	!	!LO:N:xstem:cue	!	!LO:N:xstem:cue	!
1BB-,<	-stri	1BB-,<	-stri	2D/	lum-	4f]	.	.	.
.	.	.	.	.	.	4e\	.	4cc\	.
!	!	!	!	!LO:TX:t=P:problem=kreska pseudotaktowa	!	!LO:TX:t=P:problem=kreska pseudotaktowa	!	!	!
!	!	!	!	!LO:TX:a:t=P:global:problem=rozdzielacz słów	!	!	!	!	!
.	.	.	.	2F,</	-bi	2d\	.	4b-\	.
!	!	!	!	!	!	!	!	!LO:TX:t=P:problem=kreska pseudotaktowa	!
.	.	.	.	.	.	.	.	4a\	.
=5-	=5-	=5-	=5-	=5-	=5-	=5-	=5-	=5-	=5-
1C	prae-	1C	prae-	(4E/	ves-	2c,</	-stri	2g/	.
.	.	.	.	4C/)	.	.	.	.	.
!	!	!	!	!	!	!LO:TX:t=P:problem=kreska pseudotaktowa	!	!	!
.	.	.	.	1c\	-tri	2c/	prae-	4a/	.
!	!	!	!	!	!	!	!	!LO:TX:t=P:problem=kreska pseudotaktowa	!
.	.	.	.	.	.	.	.	4g/	.
0D	-cin-	0D	-cin-	.	.	(2A/	-cin-	4f#X/	-cin-
.	.	.	.	.	.	.	.	4d/	.
*	*	*	*	*2\right	*	*	*	*	*
!	!	!	!	!LO:TX:t=P:problem=kreska pseudotaktowa	!	!LO:TX:t=P:problem=kreska pseudotaktowa	!	!	!
.	.	.	.	2B-\	prae-	2B-/)	.	1g\	.
=6-	=6-	=6-	=6-	=6-	=6-	=6-	=6-	=6-	=6-
!	!	!	!	!LO:TX:t=P:problem=kreska pseudotaktowa	!	!LO:TX:t=P:problem=kreska pseudotaktowa	!	!	!
.	.	.	.	1A	-cin-	1d	.	.	.
!	!	!	!	!	!	!	!	!LO:TX:t=P:problem=kreska pseudotaktowa	!
.	.	.	.	.	.	.	.	2f#X/	.
!LO:TX:t=P:problem=kreska pseudotaktowa	!	!LO:TX:t=P:problem=kreska pseudotaktowa	!	!	!	!	!	!LO:TX:t=P:problem=kreska pseudotaktowa	!
1GG,<	-cti	1GG,<	-cti	2G,</	-cti,	2d,<\	-cti	1g,<	-cti,
!	!	!	!	!LO:TX:t=P:problem=kreska pseudotaktowa	!	!LO:TX:t=P:problem=kreska pseudotaktowa	!	!	!
.	.	.	.	2G/	et	2g\	et	.	.
=7-	=7-	=7-	=7-	=7-	=7-	=7-	=7-	=7-	=7-
!LO:TX:t=P:problem=kreska pseudotaktowa	!	!LO:TX:t=P:problem=kreska pseudotaktowa	!	!	!	!	!	!	!
1rA	.	1r	.	(2A\	lu-	(2f\	lu-	0r	.
!	!	!	!	!LO:TX:t=P:problem=kreska pseudotaktowa	!	!LO:TX:t=P:problem=kreska pseudotaktowa	!	!	!
.	.	.	.	2Bn\)	.	2d\)	.	.	.
!	!	!	!	!	!	!LO:TX:a:t=P:problem=♮ above	!	!	!
1C	et	1C	et	(1c	-cer-	1en	-cer-	.	.
=8-	=8-	=8-	=8-	=8-	=8-	=8-	=8-	=8-	=8-
!	!	!	!	!LO:TX:t=P:problem=kreska pseudotaktowa	!	!	!	!LO:TX:t=P:problem=kreska pseudotaktowa	!
(2D\	lu-	(2D\	lu-	1B-X)	.	2f\	.	1r	.
!LO:TX:t=P:problem=kreska pseudotaktowa	!	!LO:TX:t=P:problem=kreska pseudotaktowa	!	!	!	!LO:TX:t=P:problem=kreska pseudotaktowa	!	!	!
!	!	!	!	!	!	!LO:TX:a:t=P:problem=nuta poprawiana	!	!	!
2E\)	.	2E\)	.	.	.	2g\	.	.	.
*	*	*	*	*	*	*	*	*custos:bn	*
!	!	!	!	!	!	!	!	!LO:TX:t=P:problem=kreska pseudotaktowa	!
1.F	-cer-	1.F	-cer-	2A,<\	-nae,	1a	.	1a	et
!	!	!	!	!LO:TX:t=P:problem=kreska pseudotaktowa	!	!	!	!	!
.	.	.	.	2c\	lu-	.	.	.	.
!	!	!	!	!	!	!	!	!LO:LB:g=original	!
=9-	=9-	=9-	=9-	=9-	=9-	=9-	=9-	=9-	=9-
!	!	!	!	!	!	!LO:TX:t=P:problem=kreska pseudotaktowa	!	!	!
.	.	.	.	(2d\	-cer-	1g	.	(2bn\	lu-
!LO:TX:t=P:problem=kreska pseudotaktowa	!	!LO:TX:t=P:problem=kreska pseudotaktowa	!	!LO:TX:t=P:problem=kreska pseudotaktowa	!	!	!	!LO:TX:t=P:problem=kreska pseudotaktowa	!
2E\	.	2E\	.	2e\)	.	.	.	2cc#X\)	.
!	!	!	!	!	!	!LO:LB:g=original	!	!	!
2D,</	-nae	2D,</	-nae	2f,<\	-nae	2f,<\	-nae	(2dd\	-cer-
*	*	*	*	*custos:e	*	*	*	*	*
!	!	!	!	!LO:TX:t=P:problem=kreska pseudotaktowa	!	!	!	!LO:TX:t=P:problem=kreska pseudotaktowa	!
2C#X/	ar-	2C#X/	ar-	[<2e\	ar-	4a\	ar-	2ee\)	.
!	!	!	!	!	!	!LO:TX:t=P:problem=kreska pseudotaktowa	!	!	!
.	.	.	.	.	.	4g\	.	.	.
!	!	!	!	!LO:LB:g=original	!	!	!	!	!
=10-	=10-	=10-	=10-	=10-	=10-	=10-	=10-	=10-	=10-
!	!	!LO:TX:t=P:problem=kreska pseudotaktowa	!	!	!	!	!	!	!
!	!	!	!	!LO:N:xstem:cue	!	!	!	!	!
1D	-den-	1D	-den-	4e\]	.	(1f	-den-	2a,<\	-nae
.	.	.	.	4A/	.	.	.	.	.
!	!	!	!	!	!	!	!	!LO:TX:t=P:problem=kreska pseudotaktowa	!
.	.	.	.	1d\	-den-	.	.	2a\	ar-
!	!	!	!	!	!	!LO:TX:t=P:problem=kreska pseudotaktowa	!	!LO:TX:t=P:problem=kreska pseudotaktowa	!
1AA	.	1AA	.	.	.	1e)	.	1a	-den-
!	!	!	!	!LO:TX:t=P:problem=kreska pseudotaktowa	!	!	!	!	!
.	.	.	.	2c#X\	-tes	.	.	.	.
=11-	=11-	=11-	=11-	=11-	=11-	=11-	=11-	=11-	=11-
!LO:TX:t=P:problem=kreska pseudotaktowa	!	!LO:TX:t=P:problem=kreska pseudotaktowa	!	!	!	!LO:TX:t=P:problem=kreska pseudotaktowa	!	!	!
1D,<	-tes	1D,<	-tes	2d,<\	.	1f,<	-tes	2a,<\	-tes
.	.	.	.	1f\	in	.	.	1dd\	in
!	!	!LO:LB:g=original	!	!	!	!	!	!	!
!	!	!LO:TX:t=P:problem=kreska pseudotaktowa	!	!	!	!	!	!	!
1rA	.	1rA	.	.	.	1.a	in	.	.
!	!	!	!	!LO:TX:t=P:problem=kreska pseudotaktowa	!	!	!	!LO:TX:t=P:problem=kreska pseudotaktowa	!
.	.	.	.	2e\	.	.	.	2ccny\	.
=12-	=12-	=12-	=12-	=12-	=12-	=12-	=12-	=12-	=12-
!	!	!	!	!	!	!	!	!LO:TX:a:t=P:problem=♭ above	!
2r	.	2r	.	2.d\	ma-	.	.	2.b-X\	ma-
!	!	!	!	!	!	!LO:TX:t=P:problem=kreska pseudotaktowa	!	!	!
1G\	in	1G\	in	.	.	2g\	.	.	.
!	!	!	!	!LO:TX:t=P:problem=kreska pseudotaktowa	!	!	!	!LO:TX:t=P:problem=kreska pseudotaktowa	!
.	.	.	.	4d\	-ni-	.	.	4b-\	-ni-
!	!	!	!	!	!	!	!	!LO:TX:t=P:problem=kreska pseudotaktowa	!
.	.	.	.	2cny,<\	-bus	2.a\	ma-	1a,<	-bus
!LO:TX:t=P:problem=kreska pseudotaktowa	!	!LO:TX:t=P:problem=kreska pseudotaktowa	!	!	!	!	!	!	!
2F\	.	2F\	.	1d\	Ve-	.	.	.	.
.	.	.	.	.	.	4a\	-ni-	.	.
!LO:LB:g=original	!	!	!	!	!	!LO:TX:t=P:problem=kreska pseudotaktowa	!	!	!
=13-	=13-	=13-	=13-	=13-	=13-	=13-	=13-	=13-	=13-
2.E-X\	ma-	2.E-X\	ma-	.	.	2g,<\	-b(us)	2r	.
!	!	!	!	!LO:TX:t=P:problem=kreska pseudotaktowa	!	!	!	!	!
.	.	.	.	2c\	.	4G/	ve-	1g\	in
!	!	!	!	!	!	!LO:TX:t=P:problem=kreska pseudotaktowa	!	!	!
4E-\	-ni-	4E-\	-ni-	.	.	4A/	.	.	.
!LO:TX:t=P:problem=kreska pseudotaktowa	!	!LO:TX:t=P:problem=kreska pseudotaktowa	!	!	!	!	!	!	!
1D,<	-bus	1D,<	-bus	2B-\	.	4B-/	.	.	.
.	.	.	.	.	.	(4c/	.	.	.
!	!	!	!	!LO:TX:t=P:problem=kreska pseudotaktowa	!	!	!	!LO:TX:t=P:problem=kreska pseudotaktowa	!
.	.	.	.	[2A/	.	4d/	.	2f#X/	.
!	!	!	!	!	!	!LO:TX:t=P:problem=kreska pseudotaktowa	!	!	!
.	.	.	.	.	.	4e-X/)	.	.	.
=14-	=14-	=14-	=14-	=14-	=14-	=14-	=14-	=14-	=14-
!	!	!LO:TX:t=P:problem=kreska pseudotaktowa	!	!	!	!LO:TX:t=P:problem=kreska pseudotaktowa	!	!	!
0D	Veſ-	0D	ves-	2A/]	.	0d	.	2b-\	ma-
.	.	.	.	1G/	.	.	.	4b-\	-ni-
!	!	!	!	!	!	!	!	!LO:TX:t=P:problem=kreska pseudotaktowa	!
.	.	.	.	.	.	.	.	4b-\	-b(us)
!	!	!	!	!	!	!	!	!LO:TX:t=P:problem=kreska pseudotaktowa	!
.	.	.	.	.	.	.	.	1a	Ves-
!	!	!	!	!LO:TX:t=P:problem=kreska pseudotaktowa	!	!	!	!	!
.	.	.	.	2F#X/	.	.	.	.	.
=15-	=15-	=15-	=15-	=15-	=15-	=15-	=15-	=15-	=15-
!	!	!	!	!LO:TX:t=P:problem=kreska pseudotaktowa	!	!	!	!	!
2GG,</	-tris.	2GG,</	-tris.	1G,<	-stris.	2d\	-stris;	2g,<\	-tris;
!	!	!	!	!	!	!LO:TX:t=P:problem=kreska pseudotaktowa	!	!	!
1G\	Et	1G\	Et	.	.	2r	.	1b-\	et
!	!	!	!	!LO:TX:t=P:problem=kreska pseudotaktowa	!	!	!	!	!
.	.	.	.	1r	.	2g\	et	.	.
*	*	*	*	*	*	*	*	*custos:dd	*
!	!	!	!	!	!	!LO:TX:t=P:problem=kreska pseudotaktowa	!	!LO:TX:t=P:problem=kreska pseudotaktowa	!
!LO:TX:t=P:problem=kreska pseudotaktowa	!	!LO:TX:t=P:problem=kreska pseudotaktowa	!	!	!	!	!	!	!
2A\	vos	2A,<\	vos	.	.	2fn\	vos	2cc\	Vos
!	!	!	!	!	!	!	!	!LO:LB:g=original	!
=16-	=16-	=16-	=16-	=16-	=16-	=16-	=16-	=16-	=16-
2B-\	si-	2B-\	si-	(2d\	et	2f\	si-	2dd\	si-
!	!	!	!	!LO:TX:t=P:problem=kreska pseudotaktowa	!	!	!	!LO:TX:t=P:problem=kreska pseudotaktowa	!
2G\	-mi-	2G\	-mi-	2e\)	.	2g\	-mi-	2b-\	-mi-
!	!	!LO:TX:t=P:problem=kreska pseudotaktowa	!	!	!	!	!	!	!
1.F,<	-les	[<1F	-les	(2f\	vos	2c,</	-les	2a,<\	-les
!	!	!	!	!LO:TX:t=P:problem=kreska pseudotaktowa	!	!	!	!	!
.	.	.	.	2d\)	.	(4d\	ho-	1b-\	ho-
!	!	!	!	!	!	!LO:TX:t=P:problem=kreska pseudotaktowa	!	!	!
.	.	.	.	.	.	4eny\)	.	.	.
=17-	=17-	=17-	=17-	=17-	=17-	=17-	=17-	=17-	=17-
!	!	!LO:N:xstem:cue:vis=4	!	!	!	!	!	!	!
.	.	2F\]	.	2.c\	si-	2.f\	-mi-	.	.
!	!	!	!	!	!	!	!	!LO:TX:t=P:problem=kreska pseudotaktowa	!
2F\	ho-	2F\	ho-	.	.	.	.	2a\	.
!	!	!	!	!LO:TX:t=P:problem=kreska pseudotaktowa	!	!	!	!	!
.	.	.	.	4c\	-mi-	4f\	-ni-	.	.
2.BB-/	-mi-	2.BB-/	-mi-	2d,<\	-les	2f,<\	-b(us)	2b-\	-mi-
!	!	!	!	!	!	!	!	!LO:TX:t=P:problem=kreska pseudotaktowa	!
.	.	.	.	1d\	ho-	1f\	ex-	2b-\	-ni-
!LO:TX:t=P:problem=kreska pseudotaktowa	!	!LO:TX:t=P:problem=kreska pseudotaktowa	!	!	!	!	!	!	!
4BB-/	-ni-	4BB-/	-ni-	.	.	.	.	.	.
=18-	=18-	=18-	=18-	=18-	=18-	=18-	=18-	=18-	=18-
2BB-,</	-bus	2BB-,</	-bus	.	.	.	.	2b-,<\	-bus
!LO:TX:t=P:problem=kreska pseudotaktowa	!	!LO:TX:t=P:problem=kreska pseudotaktowa	!	!LO:TX:t=P:problem=kreska pseudotaktowa	!	!LO:TX:t=P:problem=kreska pseudotaktowa	!	!LO:TX:t=P:problem=kreska pseudotaktowa	!
(2F\	ex-	2F\	ex-	2f\	.	2a\	-pe-	2cc\	ex-
!	!	!	!	!LO:LB:g=original	!	!LO:LB:g=original	!	!	!
2G\)	-pe-	(2G\	-pe-	2e\	-mi-	(2g\	-ctan-	(2b-\	-pe-
!LO:TX:t=P:problem=kreska pseudotaktowa	!	!LO:TX:t=P:problem=kreska pseudotaktowa	!	!	!	!LO:TX:t=P:problem=kreska pseudotaktowa	!	!LO:TX:t=P:problem=kreska pseudotaktowa	!
2D\	.	2D/)	.	1d\	.	2f\)	.	2a\)	.
=19-	=19-	=19-	=19-	=19-	=19-	=19-	=19-	=19-	=19-
2A\	-ctan-	2A\	-ctan-	.	.	2.e\	.	2.a\	-ctan-
!	!	!LO:TX:t=P:problem=kreska pseudotaktowa	!	!LO:TX:t=P:problem=kreska pseudotaktowa	!	!	!	!	!
2AA/	-ti-	2AA/	-ti-	2c#X\	-ni-	.	.	.	.
!	!	!	!	!	!	!	!	!LO:TX:t=P:problem=kreska pseudotaktowa	!
.	.	.	.	.	.	4e\	-ti-	4a\	-ti-
!	!	!	!	!LO:TX:t=P:problem=kreska pseudotaktowa	!	!LO:TX:t=P:problem=kreska pseudotaktowa	!	!	!
2D,</	-b(us)	2D,</	-b(us)	1d,<	-bus	0f,<	-bus	2a,<\	-bus
(2D/	Do-	2D/	Do-	.	.	.	.	1dd\	Do-
=20-	=20-	=20-	=20-	=20-	=20-	=20-	=20-	=20-	=20-
*	*	*custos:GG	*	*	*	*	*	*	*
!LO:TX:t=P:problem=kreska pseudotaktowa	!	!	!	!	!	!	!	!	!
!	!	!LO:TX:t=P:problem=kreska pseudotaktowa	!	!	!	!	!	!	!
1BB-)	.	1BB-	.	2r	.	.	.	.	.
.	.	.	.	1d\	ex-	.	.	1b-\	.
!	!	!LO:LB:g=original	!	!	!	!	!	!	!
2GG/	-mi-	2GG/	-mi-	.	.	2r	.	.	.
!	!	!	!	!LO:TX:t=P:problem=kreska pseudotaktowa	!	!	!	!LO:TX:t=P:problem=kreska pseudotaktowa	!
2GG,</	-num	2GG,</	-num	2B-\	-pe-	1g\	Do-	2g/	-mi-
=21-	=21-	=21-	=21-	=21-	=21-	=21-	=21-	=21-	=21-
!	!	!LO:TX:t=P:problem=kreska pseudotaktowa	!	!	!	!	!	!	!
1Cny	su-	1Cny	su-	2cny\	-ctan-	.	.	2e,</	-num
!	!	!	!	!LO:TX:t=P:problem=kreska pseudotaktowa	!	!LO:TX:t=P:problem=kreska pseudotaktowa	!	!	!
.	.	.	.	2G/	.	2e\	-mi-	1cc\	su-
!LO:TX:t=P:problem=kreska pseudotaktowa	!	!	!	!	!	!	!	!	!
1AA	.	1AA	.	2A\	.	2e,<\	-num	.	.
!	!	!	!	!LO:TX:t=P:problem=kreska pseudotaktowa	!	!	!	!LO:TX:t=P:problem=kreska pseudotaktowa	!
.	.	.	.	2c\	.	1f\	su-	2a\	.
=22-	=22-	=22-	=22-	=22-	=22-	=22-	=22-	=22-	=22-
!	!	!	!	!	!	!	!	!LO:TX:t=P:problem=kreska pseudotaktowa	!
(2BB-/	.	(2BB-/	.	2d\	.	.	.	1g	.
!	!	!LO:TX:t=P:problem=kreska pseudotaktowa	!	!LO:TX:t=P:problem=kreska pseudotaktowa	!	!LO:TX:t=P:problem=kreska pseudotaktowa	!	!	!
2C/)	.	2C/)	.	2c\	-ti-	2e\	.	.	.
!	!	!	!	!	!	!	!	!LO:TX:t=P:problem=kreska pseudotaktowa	!
2FF,</	-um	2FF,</	-um	1.c,<	-bus,	2f,<\	-um,	1a	-um,
1F\	quan-	1F\	quan-	.	.	1a\	quan-	.	.
=23-	=23-	=23-	=23-	=23-	=23-	=23-	=23-	=23-	=23-
!	!	!	!	!	!	!	!	!LO:TX:t=P:problem=kreska pseudotaktowa	!
.	.	.	.	.	.	.	.	1r	.
!LO:TX:t=P:problem=kreska pseudotaktowa	!	!LO:TX:t=P:problem=kreska pseudotaktowa	!	!LO:TX:t=P:problem=kreska pseudotaktowa	!	!LO:TX:t=P:problem=kreska pseudotaktowa	!	!	!
2Eny,<\	-do	2Eny,<\	-do	[<2c\	quan-	2g,<\	-do	.	.
!LO:LB:g=original	!	!	!	!	!	!	!	!	!
2F\	re-	2F\	re-	2c\]	.	2f\	re-	2rf	.
!	!	!	!	!LO:TX:t=P:problem=kreska pseudotaktowa	!	!	!	!	!
2F\	-ver-	2F\	-ver-	2A/	.	2f\	-ver-	1fny/	quan-
=24-	=24-	=24-	=24-	=24-	=24-	=24-	=24-	=24-	=24-
!	!	!LO:TX:t=P:problem=kreska pseudotaktowa	!	!	!	!LO:TX:t=P:problem=kreska pseudotaktowa	!	!	!
1C	-ta-	1C	-ta-	1c	-do	1g	-ta-	.	.
*	*	*	*	*	*	*	*	*custos:g	*
!	!	!	!	!	!	!	!	!LO:TX:t=P:problem=kreska pseudotaktowa	!
.	.	.	.	.	.	.	.	2e,</	-do
!	!	!	!	!	!	!	!	!LO:LB:g=original	!
2GG,</	-t(ur)	2GG,</	-t(ur)	2B-X,<\	.	2g,<\	-t(ur)	1g	re-
1G\	re-	1G\	re-	1B-\	re-	1d\	re-	.	.
=25-	=25-	=25-	=25-	=25-	=25-	=25-	=25-	=25-	=25-
.	.	.	.	.	.	.	.	2d/	-ver-
!LO:TX:t=P:problem=kreska pseudotaktowa	!	!LO:TX:t=P:problem=kreska pseudotaktowa	!	!LO:TX:t=P:problem=kreska pseudotaktowa	!	!LO:TX:t=P:problem=kreska pseudotaktowa	!	!	!
2F#X\	-ver-	2F#X\	-ver-	2A\	-ver-	2d\	-ver-	1dd\	-ta-
(2G\	-ta-	(2G\	-ta-	(2B-\	-ta-	2d\	-ta-	.	.
!	!	!LO:TX:t=P:problem=kreska pseudotaktowa	!	!	!	!	!	!LO:TX:t=P:problem=kreska pseudotaktowa	!
2E-X\)	.	2E-X\)	.	2G/)	.	1g,<\	-tur	2cc\	.
=26-	=26-	=26-	=26-	=26-	=26-	=26-	=26-	=26-	=26-
2C,</	-tur	2C,</	-tur	2c,<\	-tur	.	.	2ee-X,<\	-tur
!LO:TX:t=P:problem=kreska pseudotaktowa	!	!LO:TX:t=P:problem=kreska pseudotaktowa	!	!LO:TX:t=P:problem=kreska pseudotaktowa	!	!LO:TX:t=P:problem=kreska pseudotaktowa	!	!LO:TX:t=P:problem=kreska pseudotaktowa	!
2BBn/	à	2BBn/	à	2d\	à	2g\	à	2dd\	à
1C	nu-	1C	nu-	1.e-X	Nu-	1g	Nu-	2.cc\	Nu-
!	!	!	!	!	!	!	!	!LO:TX:t=P:problem=kreska pseudotaktowa	!
.	.	.	.	.	.	.	.	4b-\	.
=27-	=27-	=27-	=27-	=27-	=27-	=27-	=27-	=27-	=27-
1.Fny	.	1.Fny	.	.	.	1.fn	.	4a\	.
.	.	.	.	.	.	.	.	4f/	.
!	!	!	!	!LO:TX:t=P:problem=kreska pseudotaktowa	!	!	!	!	!
.	.	.	.	2d\	[[pt]]	.	.	1b-\	.
!	!	!	!	!LO:LB:g=original	!	!	!	!	!
.	.	.	.	2.c\	.	.	.	.	.
!	!	!LO:TX:t=P:problem=kreska pseudotaktowa	!	!	!	!	!	!LO:TX:t=P:problem=kreska pseudotaktowa	!
2FF/	-pti-	2FF/	-pti-	.	.	2f\	-pti-	2a\	-pti-
!	!	!	!	!LO:TX:t=P:problem=kreska pseudotaktowa	!	!	!	!	!
.	.	.	.	4c\	-pti-	.	.	.	.
=28-	=28-	=28-	=28-	=28-	=28-	=28-	=28-	=28-	=28-
*	*	*custos:B	*	*	*	*	*	*	*
!LO:TX:t=P:problem=kreska pseudotaktowa	!	!	!	!	!	!	!	!	!
0BB-yl;	-js.	0BB-l;	-js.	0dl;,<	-js.	0fl	-js.	0b-l;	-js.
!	!	!LO:LB:g=original	!	!	!	!LO:LB:g=original	!	!	!
=29||	=29||	=29||	=29||	=29||	=29||	=29||	=29||	=29||	=29||
*M3/2	*	*M3/2	*	*M3/2	*	*M3/2	*	*M3/2	*
2r	.	2rG	.	2r	.	2r	.	2r	.
2B-\	Vi-	2B-\	Vi-	2B-\	Vi-	2f\	Vi-	2dd\	Vi-
!LO:TX:t=P:problem=kreska pseudotaktowa	!	!LO:TX:t=P:problem=kreska pseudotaktowa	!	!LO:TX:t=P:problem=kreska pseudotaktowa	!	!LO:TX:t=P:problem=kreska pseudotaktowa	!	!LO:TX:t=P:problem=kreska pseudotaktowa	!
2B-\	-gi-	2B-\	-gi-	2B-\	-gi-	2f\	-gi-	2dd\	-gi-
=30-	=30-	=30-	=30-	=30-	=30-	=30-	=30-	=30-	=30-
2F\	-la-	2F\	-la-	2A\	-la-	2f\	-la-	2cc\	-la-
2F\	-te	2F,<\	-te	2A,<\	-te	2f,<\	-te	2cc,<\	-te
!LO:TX:t=P:problem=kreska pseudotaktowa	!	!LO:TX:t=P:problem=kreska pseudotaktowa	!	!LO:TX:t=P:problem=kreska pseudotaktowa	!	!LO:TX:t=P:problem=kreska pseudotaktowa	!	!LO:TX:t=P:problem=kreska pseudotaktowa	!
2BB-/	er-	2BB-/	er-	2B-\	er-	2f\	er-	2dd\	er-
=31-	=31-	=31-	=31-	=31-	=31-	=31-	=31-	=31-	=31-
2F,<\	-go	2F,<\	-go	2c,<\	-go	2a,<\	-go	2ff,<\	-gò
2F\	qui-	2F\	qui-	2c\	qui-	2a\	qui-	2ff\	qui-
!LO:TX:t=P:problem=kreska pseudotaktowa	!	!LO:TX:t=P:problem=kreska pseudotaktowa	!	!LO:TX:t=P:problem=kreska pseudotaktowa	!	!LO:TX:t=P:problem=kreska pseudotaktowa	!	!LO:TX:t=P:problem=kreska pseudotaktowa	!
2G\	-a	2G\	-a	2B-\	-a	2g\	-a	2dd\	-a
=32-	=32-	=32-	=32-	=32-	=32-	=32-	=32-	=32-	=32-
(4A\	nes-	(4A\	nes-	2A/	ne-	2f\	nes-	2cc\	nes-
4G\)	.	4G\)	.	.	.	.	.	.	.
!	!	!	!	!	!	!	!	!LO:TX:t=P:problem=kreska pseudotaktowa	!
(4A\	-ci-	(4A\	-ci-	(2A/	-sci-	(2f\	-ci-	1cc	-ci-
4B-\	.	4B-\	.	.	.	.	.	.	.
!LO:TX:t=P:problem=kreska pseudotaktowa	!	!LO:TX:t=P:problem=kreska pseudotaktowa	!	!LO:TX:t=P:problem=kreska pseudotaktowa	!	!LO:TX:t=P:problem=kreska pseudotaktowa	!	!	!
2c\)	.	2c\)	.	2G/)	.	2e\)	.	.	.
=33-	=33-	=33-	=33-	=33-	=33-	=33-	=33-	=33-	=33-
!LO:TX:t=P:problem=kreska pseudotaktowa	!	!LO:TX:t=P:problem=kreska pseudotaktowa	!	!LO:TX:t=P:problem=kreska pseudotaktowa	!	!LO:TX:t=P:problem=kreska pseudotaktowa	!	!LO:TX:t=P:problem=kreska pseudotaktowa	!
1.F,<	-tis	1.F,<	-tis	1.A	-tis	1.f,<	-tis	1.cc,<	-tis
!	!	!	!	!	!	!	!	!LO:LB:g=original	!
=34-	=34-	=34-	=34-	=34-	=34-	=34-	=34-	=34-	=34-
2c\	quà	2c\	quà	2G/	quà	2en\	quà	2cc\	quà
2c\	ho-	2c\	ho-	2G/	ho-	2e\	ho-	2cc\	ho-
*custos:C	*	*	*	*	*	*	*	*	*
!LO:TX:t=P:problem=kreska pseudotaktowa	!	!LO:TX:t=P:problem=kreska pseudotaktowa	!	!LO:TX:t=P:problem=kreska pseudotaktowa	!	!LO:TX:t=P:problem=kreska pseudotaktowa	!	!LO:TX:t=P:problem=kreska pseudotaktowa	!
2C/	-ra	2C/	-ra	2G/	-ra	2e\	-rà	2cc\	-ra
!LO:LB:g=original	!	!	!	!	!	!	!	!	!
=35-	=35-	=35-	=35-	=35-	=35-	=35-	=35-	=35-	=35-
2.C/	Do-	2.C/	Do-	2.G/	Do-	2.e\	Do-	2.cc\	Do-
4C/	-mi-	4C/	-mi-	4G/	-mi-	4e\	-mi-	4cc\	-mi-
!LO:TX:t=P:problem=kreska pseudotaktowa	!	!LO:TX:t=P:problem=kreska pseudotaktowa	!	!LO:TX:t=P:problem=kreska pseudotaktowa	!	!LO:TX:t=P:problem=kreska pseudotaktowa	!	!LO:TX:t=P:problem=kreska pseudotaktowa	!
2D/	-n(us)	2D\	-n(us)	2F,</	-n(us)	2d,<\	-n(us)	2a,<\	-nus
=36-	=36-	=36-	=36-	=36-	=36-	=36-	=36-	=36-	=36-
*	*ij	*	*ij	*	*ij	*	*ij	*	*ij
2.C/	Do-	2.C/	Do-	2.G/	Do-	2.e\	Do-	2.cc\	Do-
4C/	-mi-	4C/	-mi-	4G/	-mi-	4e\	-mi-	4cc\	-mi-
!LO:TX:t=P:problem=kreska pseudotaktowa	!	!LO:TX:t=P:problem=kreska pseudotaktowa	!	!LO:TX:t=P:problem=kreska pseudotaktowa	!	!LO:TX:t=P:problem=kreska pseudotaktowa	!	!LO:TX:t=P:problem=kreska pseudotaktowa	!
2AA/	-n(us)	2AA/	-n(us)	2A,</	-n(us)	2f,<\	-n(us)	2cc\	-nus
*	*Xij	*	*Xij	*	*Xij	*	*Xij	*	*Xij
=37-	=37-	=37-	=37-	=37-	=37-	=37-	=37-	=37-	=37-
!	!	!	!	!	!	!	!	!LO:TX:t=P:problem=kreska pseudotaktowa	!
1BB-	ves-	1BB-	ves-	1F	ve-	(1d	ve-	1.b-X	Ves-
!	!	!LO:TX:t=P:problem=kreska pseudotaktowa	!	!LO:TX:t=P:problem=kreska pseudotaktowa	!	!LO:TX:t=P:problem=kreska pseudotaktowa	!	!	!
2GG/	.	2GG/	.	2G/	.	2e\)	.	.	.
!	!	!	!	!LO:LB:g=original	!	!	!	!	!
=38-	=38-	=38-	=38-	=38-	=38-	=38-	=38-	=38-	=38-
1FF,<	-ter	1FF,<	-ter	1A,<	-ster	1f,<	-ster,	1cc,<	-ter
!LO:TX:t=P:problem=kreska pseudotaktowa	!	!LO:TX:t=P:problem=kreska pseudotaktowa	!	!LO:TX:t=P:problem=kreska pseudotaktowa	!	!LO:TX:t=P:problem=kreska pseudotaktowa	!	!LO:TX:t=P:problem=kreska pseudotaktowa	!
!	!	!	!	!	!	!LO:N:vis=1.	!	!	!
2F\	Do-	(<2F\	Do-	[<2A\	Do-	1f\	Do-	(2cc\	Do-
=39-	=39-	=39-	=39-	=39-	=39-	=39-	=39-	=39-	=39-
(2.D/	.	2.D/)	.	2.A\]	.	.	.	2.dd\)	.
.	.	.	.	.	.	4fyy	.	.	.
4C/)	-mi-	4D/	-mi-	4A\	-mi-	4f\	-mi-	4dd\	-mi-
!LO:TX:t=P:problem=kreska pseudotaktowa	!	!LO:TX:t=P:problem=kreska pseudotaktowa	!	!LO:TX:t=P:problem=kreska pseudotaktowa	!	!LO:TX:t=P:problem=kreska pseudotaktowa	!	!LO:TX:t=P:problem=kreska pseudotaktowa	!
2BB-/	-n(us)	2BB-/	-n(us)	2B-\	-n(us)	2d\	-n(us)	2dd\	-n(us)
!	!	!LO:LB:g=original	!	!	!	!LO:LB:g=original	!	!	!
=40-	=40-	=40-	=40-	=40-	=40-	=40-	=40-	=40-	=40-
(<2C/	Veſ-	2C/	Ve-	2G/	ve-	2e\	ve-	1cc	Ve-
!	!	!LO:TX:t=P:problem=kreska pseudotaktowa	!	!LO:TX:t=P:problem=kreska pseudotaktowa	!	!LO:TX:t=P:problem=kreska pseudotaktowa	!	!	!
1D)	.	1D	.	1F	.	1f	.	.	.
!	!	!	!	!	!	!	!	!LO:TX:t=P:problem=kreska pseudotaktowa	!
.	.	.	.	.	.	.	.	2bn\	.
=41-	=41-	=41-	=41-	=41-	=41-	=41-	=41-	=41-	=41-
2C,</	-ter	2C,</	-ster	2G,</	-ster	2e,<\	-ster	2cc,<\	-ster
2c\	D(o-	2c\	Do-	2c\	Do-	2e\	Do-	2g/	Do-
4c\	-mi)-	4c\	-mi-	4c\	-mi-	4e\	-mi-	4g/	-mi-
!LO:TX:t=P:problem=kreska pseudotaktowa	!	!LO:TX:t=P:problem=kreska pseudotaktowa	!	!LO:TX:t=P:problem=kreska pseudotaktowa	!	!LO:TX:t=P:problem=kreska pseudotaktowa	!	!LO:TX:t=P:problem=kreska pseudotaktowa	!
4c\	-n(us)	4c\	-n(us)	4c\	-n(us)	4e\	-n(us)	4g/	-n(us)
=42-	=42-	=42-	=42-	=42-	=42-	=42-	=42-	=42-	=42-
*	*ij	*	*ij	*	*ij	*	*ij	*	*ij
2.F\	D(o-	2.F\	Do-	2.c\	Do-	2.f\	Do-	2.a\	Do-
4F\	-mi)-	4F\	-mi-	4c\	-mi-	4f\	-mi-	4a\	-mi-
!LO:TX:t=P:problem=kreska pseudotaktowa	!	!LO:TX:t=P:problem=kreska pseudotaktowa	!	!LO:TX:t=P:problem=kreska pseudotaktowa	!	!LO:TX:t=P:problem=kreska pseudotaktowa	!	!LO:TX:t=P:problem=kreska pseudotaktowa	!
2E\	-n(us)	2E,<\	-n(us)	2c,<\	-n(us)	2g\	-n(us)	2g\	-n(us)
*	*Xij	*	*Xij	*	*Xij	*	*Xij	*	*Xij
!	!	!	!	!	!	!	!	!LO:LB:g=original	!
=43-	=43-	=43-	=43-	=43-	=43-	=43-	=43-	=43-	=43-
2.F\	Do-	2.F\	Do-	2.c\	Do-	2.f\	Do-	2.a\	Do-
4F\	-mi-	4F\	-mi-	4c\	-mi-	4f\	-mi-	4a\	-mi-
!LO:TX:t=P:problem=kreska pseudotaktowa	!	!LO:TX:t=P:problem=kreska pseudotaktowa	!	!LO:TX:t=P:problem=kreska pseudotaktowa	!	!LO:TX:t=P:problem=kreska pseudotaktowa	!	!LO:TX:t=P:problem=kreska pseudotaktowa	!
2C/	-n(us)	2C,</	-n(us)	2c\	-n(us)	2e,<\	-n(us)	2g,<\	-n(us)
=44-	=44-	=44-	=44-	=44-	=44-	=44-	=44-	=44-	=44-
2D\	veſ-	2D\	veſ-	2A\	ves-	2f\	ves-	2f/	ves-
2D,<\	-ter	2D,<\	-ter	2d,<\	-ter	2f,<\	-ter	2a,<\	-ter
!LO:TX:t=P:problem=kreska pseudotaktowa	!	!LO:TX:t=P:problem=kreska pseudotaktowa	!	!LO:TX:t=P:problem=kreska pseudotaktowa	!	!LO:TX:t=P:problem=kreska pseudotaktowa	!	!LO:TX:t=P:problem=kreska pseudotaktowa	!
2GG/	Ven-	2GG/	Ven-	2d\	ven-	2g\	ven-	2b-\	Ven-
=45-	=45-	=45-	=45-	=45-	=45-	=45-	=45-	=45-	=45-
1AA	-tu-	1AA	-tu-	1d	-tu-	1e	-tu-	1a	-tu-
!LO:TX:t=P:problem=kreska pseudotaktowa	!	!LO:TX:t=P:problem=kreska pseudotaktowa	!	!LO:TX:t=P:problem=kreska pseudotaktowa	!	!LO:TX:t=P:problem=kreska pseudotaktowa	!	!LO:TX:t=P:problem=kreska pseudotaktowa	!
2AA/	-r(us)	2AA/	-r(us)	2c#X\	-r(us)	2e\	-r(us)	2a\	-rus
=46-	=46-	=46-	=46-	=46-	=46-	=46-	=46-	=46-	=46-
2D,<\	sit	2D,<\	sit	2d,<\	sit	2f,<\	sit,	2a,<\	sit
*	*ij	*	*	*	*	*	*	*	*
2G\	Ven-	2G\	Ven-	(2B-\	ven-	(2d\	Ven-	(2b-\	Ven-
!LO:TX:t=P:problem=kreska pseudotaktowa	!	!LO:TX:t=P:problem=kreska pseudotaktowa	!	!LO:TX:t=P:problem=kreska pseudotaktowa	!	!LO:TX:t=P:problem=kreska pseudotaktowa	!	!LO:TX:t=P:problem=kreska pseudotaktowa	!
2C/	.	2C/	.	2G/)	.	2e\)	.	2a\)	.
=47-	=47-	=47-	=47-	=47-	=47-	=47-	=47-	=47-	=47-
1D	-tu-	1D	-tu-	1G	-tu-	1d	-tu-	1a	-tu-
!	!	!LO:TX:t=P:problem=kreska pseudotaktowa	!	!LO:TX:t=P:problem=kreska pseudotaktowa	!	!	!	!LO:TX:t=P:problem=kreska pseudotaktowa	!
2D\	-r(us)	2D\	-r(us)	2F#X/	-rus	2d\	-r(us)	2a\	-rus
!	!	!	!	!LO:LB:g=original	!	!	!	!	!
=48-	=48-	=48-	=48-	=48-	=48-	=48-	=48-	=48-	=48-
*M2/1	*	*M2/1	*	*M2/1	*	*M2/1	*	*M2/1	*
*met(C|)	*	*met(C|)	*	*met(C|)	*	*met(C|)	*	*met(C|)	*
!	!	!	!	!LO:TX:t=P:problem=kreska pseudotaktowa	!	!	!	!	!
2GG,</	sit	2GG,</	sit.	1G	sit.	2d\	sit.	2g,<\	sit.
*	*Xij	*	*	*	*	*	*	*	*
!	!	!	!	!	!	!LO:TX:t=P:problem=kreska pseudotaktowa	!	!	!
1G\	Et	1G\	Et	.	.	2r	.	1b-\	Et
!	!	!	!	!LO:TX:t=P:problem=kreska pseudotaktowa	!	!	!	!	!
.	.	.	.	1r	.	2g\	Et	.	.
!	!	!LO:TX:t=P:problem=kreska pseudotaktowa	!	!	!	!LO:TX:t=P:problem=kreska pseudotaktowa	!	!LO:TX:t=P:problem=kreska pseudotaktowa	!
2A\	vos	2A\	vos	.	.	2f\	vos	2cc\	vos
!LO:LB:g=original	!	!	!	!	!	!LO:LB:g=original	!	!	!
=49-	=49-	=49-	=49-	=49-	=49-	=49-	=49-	=49-	=49-
2B-X\	si-	2B-\	si-	(2d\	Et	2f\	si-	2dd\	si-
!	!	!LO:TX:t=P:problem=kreska pseudotaktowa	!	!LO:TX:t=P:problem=kreska pseudotaktowa	!	!LO:TX:t=P:problem=kreska pseudotaktowa	!	!LO:TX:t=P:problem=kreska pseudotaktowa	!
2G\	-mi-	2G\	-mi-	2e\)	.	2g\	-mi-	2b-\	-mi-
!	!	!LO:LB:g=original	!	!	!	!	!	!	!
1.F,<	-les	1.F,<	-les	(2f\	vos	2c,</	-les	2a,<\	-les
!	!	!	!	!LO:TX:t=P:problem=kreska pseudotaktowa	!	!	!	!	!
.	.	.	.	2d\)	.	4d\	ho-	1b-\	ho-
!	!	!	!	!	!	!LO:TX:t=P:problem=kreska pseudotaktowa	!	!	!
.	.	.	.	.	.	4e\	.	.	.
=50-	=50-	=50-	=50-	=50-	=50-	=50-	=50-	=50-	=50-
.	.	.	.	2.cny\	si-	2.f\	-mi-	.	.
!LO:TX:t=P:problem=kreska pseudotaktowa	!	!LO:TX:t=P:problem=kreska pseudotaktowa	!	!	!	!	!	!LO:TX:t=P:problem=kreska pseudotaktowa	!
2F\	ho-	2F\	ho-	.	.	.	.	2a\	.
!	!	!	!	!LO:TX:t=P:problem=kreska pseudotaktowa	!	!LO:TX:t=P:problem=kreska pseudotaktowa	!	!	!
.	.	.	.	4c\	-mi-	4f\	-ni-	.	.
2BB-/	-mi-	2.BB-/	-mi-	2d,<\	-les	2f,<\	-b(us)	2b-\	-mi-
*	*	*	*	*	*	*	*	*custos:b	*
!	!	!	!	!LO:TX:t=P:problem=kreska pseudotaktowa	!	!	!	!	!
!LO:N:xstem:cue	!	!	!	!	!	!	!	!LO:TX:t=P:problem=kreska pseudotaktowa	!
4BB-/	.	.	.	[<2d\	ho-	1f\	ex-	2b-\	-ni-
!	!	!LO:TX:t=P:problem=kreska pseudotaktowa	!	!	!	!	!	!	!
4BB-/	-ni-	4BB-/	-ni-	.	.	.	.	.	.
!	!	!	!	!	!	!	!	!LO:PB:g=original	!
=51-	=51-	=51-	=51-	=51-	=51-	=51-	=51-	=51-	=51-
2BB-,</	-b(us)	2BB-,</	-b(us)	2d\]	.	.	.	2b-,<\	-bus
!LO:TX:t=P:problem=kreska pseudotaktowa	!	!LO:TX:t=P:problem=kreska pseudotaktowa	!	!LO:TX:t=P:problem=kreska pseudotaktowa	!	!LO:TX:t=P:problem=kreska pseudotaktowa	!	!LO:TX:t=P:problem=kreska pseudotaktowa	!
(2F\	ex-	2F\	ex-	2f\	.	2a\	-pec-	2cc\	ex-
2G\)	-pe-	(2G\	-pe-	2e\	-mi-	(2g\	-tan-	(2b-\	-pe-
!	!	!	!	!LO:TX:t=P:problem=kreska pseudotaktowa	!	!LO:TX:t=P:problem=kreska pseudotaktowa	!	!LO:TX:t=P:problem=kreska pseudotaktowa	!
2D\	.	2D\)	.	[<2d\	.	2f\)	.	2a\)	.
=52-	=52-	=52-	=52-	=52-	=52-	=52-	=52-	=52-	=52-
2A\	-ctan-	2A\	-ctan-	2d]	.	2.e\	.	2.a\	-ctan-
!	!	!LO:TX:t=P:problem=kreska pseudotaktowa	!	!LO:TX:t=P:problem=kreska pseudotaktowa	!	!	!	!	!
2AA/	-ti-	2AA/	-ti-	2c#X\	-ni-	.	.	.	.
!	!	!	!	!	!	!LO:TX:t=P:problem=kreska pseudotaktowa	!	!LO:TX:t=P:problem=kreska pseudotaktowa	!
.	.	.	.	.	.	4e\	-ti-	4a\	-ti-
!LO:TX:t=P:problem=kreska pseudotaktowa	!	!	!	!LO:TX:t=P:problem=kreska pseudotaktowa	!	!LO:TX:t=P:problem=kreska pseudotaktowa	!	!	!
1D,<	-b(us)	2D,<\	-b(us)	1d,<	-bus	0f,<	-bus	2a,<\	-b(us)
.	.	2D\	Do-	.	.	.	.	1dd\	Do-
!	!	!	!	!LO:LB:g=original	!	!	!	!	!
=53-	=53-	=53-	=53-	=53-	=53-	=53-	=53-	=53-	=53-
!	!	!LO:TX:t=P:problem=kreska pseudotaktowa	!	!	!	!	!	!	!
1BB-	D(o-	1BB-	.	2rd	.	.	.	.	.
!	!	!	!	!	!	!LO:TX:b:i:t=Vertat	!	!	!
.	.	.	.	1d\	ex-	.	.	1b-\	.
!	!	!	!	!	!	!LO:PB:g=original	!	!	!
2GG/	-mi)-	2GG/	-mi-	.	.	2r	.	.	.
!	!	!	!	!LO:TX:t=P:problem=kreska pseudotaktowa	!	!	!	!LO:TX:t=P:problem=kreska pseudotaktowa	!
2GG,</	-num	2GG,</	-n(us)	2B-\	-pe-	1g\	Do-	2g/	-mi-
=54-	=54-	=54-	=54-	=54-	=54-	=54-	=54-	=54-	=54-
!LO:TX:t=P:problem=kreska pseudotaktowa	!	!LO:TX:t=P:problem=kreska pseudotaktowa	!	!	!	!	!	!	!
1C	su-	1C	su-	2cny\	-ctan-	.	.	2e,</	-num
!	!	!	!	!LO:TX:t=P:problem=kreska pseudotaktowa	!	!LO:TX:t=P:problem=kreska pseudotaktowa	!	!	!
.	.	.	.	2G/	.	2e\	-mi-	(1cc\	su-
1AA	.	1AA	.	2A\	.	2e,<\	-num	.	.
!	!	!	!	!LO:TX:t=P:problem=kreska pseudotaktowa	!	!	!	!LO:TX:t=P:problem=kreska pseudotaktowa	!
.	.	.	.	2c\	.	(1f\	su-	2a\)	.
=55-	=55-	=55-	=55-	=55-	=55-	=55-	=55-	=55-	=55-
(2BB-/	.	2BB-/	.	2d\	.	.	.	1g	.
!LO:TX:t=P:problem=kreska pseudotaktowa	!	!LO:TX:t=P:problem=kreska pseudotaktowa	!	!LO:TX:t=P:problem=kreska pseudotaktowa	!	!LO:TX:t=P:problem=kreska pseudotaktowa	!	!	!
2C/)	.	2C/	.	2c\	-ti-	2e\)	.	.	.
!	!	!	!	!	!	!	!	!LO:TX:t=P:problem=kreska pseudotaktowa	!
2F,<\	-um	2FF,</	-um	1.c	-bus,	2f,<\	-um	1a	-um
1F\	quan-	1F\	quan-	.	.	1a\	quan-	.	.
=56-	=56-	=56-	=56-	=56-	=56-	=56-	=56-	=56-	=56-
!	!	!	!	!	!	!	!	!LO:TX:t=P:problem=kreska pseudotaktowa	!
.	.	.	.	.	.	.	.	1r	.
!LO:TX:t=P:problem=kreska pseudotaktowa	!	!LO:TX:t=P:problem=kreska pseudotaktowa	!	!LO:TX:t=P:problem=kreska pseudotaktowa	!	!LO:TX:t=P:problem=kreska pseudotaktowa	!	!	!
2E\	-do	2E\	-do	[2c\	quan-	2g,<\	-do	.	.
2F\	re-	2F\	re-	2c\]	.	2f\	re-	2rf	.
!	!	!	!	!LO:TX:t=P:problem=kreska pseudotaktowa	!	!	!	!	!
2F\	-ver-	2F\	-ver-	2A,<\	-do	2f\	-ver-	1f/	quan-
=57-	=57-	=57-	=57-	=57-	=57-	=57-	=57-	=57-	=57-
!	!	!LO:TX:t=P:problem=kreska pseudotaktowa	!	!LO:TX:t=P:problem=kreska pseudotaktowa	!	!LO:TX:t=P:problem=kreska pseudotaktowa	!	!	!
1C	-ta-	1C	-ta-	1c	re-	1g	-ta-	.	.
!	!	!	!	!	!	!	!	!LO:TX:t=P:problem=kreska pseudotaktowa	!
.	.	.	.	.	.	.	.	2e,</	-do
2GG,</	-t(ur)	2GG,</	-t(ur)	2B-\	-ver-	2g,<\	-tur	1g	re-
*	*ij	*	*ij	*	*	*	*	*	*
1G\	re-	1G\	re-	1B-\	-ta-	1d\	re-	.	.
=58-	=58-	=58-	=58-	=58-	=58-	=58-	=58-	=58-	=58-
.	.	.	.	.	.	.	.	2d/	-ver-
!LO:TX:t=P:problem=kreska pseudotaktowa	!	!LO:TX:t=P:problem=kreska pseudotaktowa	!	!LO:TX:t=P:problem=kreska pseudotaktowa	!	!LO:TX:t=P:problem=kreska pseudotaktowa	!	!	!
2F#X\	-ver-	2F#X\	-ver-	2A\	.	2d\	-ver-	1dd\	-ta-
(2G\	-ta-	2G\	-ta-	2B-,<\	-tur	(2d\	-ta-	.	.
!	!	!LO:TX:t=P:problem=kreska pseudotaktowa	!	!LO:TX:t=P:problem=kreska pseudotaktowa	!	!LO:TX:t=P:problem=kreska pseudotaktowa	!	!LO:TX:t=P:problem=kreska pseudotaktowa	!
2E-X\)	.	2E-X\	.	2G/	à	2g\)	.	2cc\	.
=59-	=59-	=59-	=59-	=59-	=59-	=59-	=59-	=59-	=59-
2C,</	-t(ur)	2C,</	-t(ur)	(2c\	nu-	2g,<\	-tus	2ee-X,<\	-tur
*	*Xij	*	*Xij	*	*	*	*	*	*
!LO:TX:t=P:problem=kreska pseudotaktowa	!	!	!	!LO:TX:t=P:problem=kreska pseudotaktowa	!	!LO:TX:t=P:problem=kreska pseudotaktowa	!	!LO:TX:t=P:problem=kreska pseudotaktowa	!
2BBn/	à	2BBn/	à	2d\)	.	2g\	à	2dd\	à
1.C	nup-	1.C	nup-	1.e-X	.	1.g	nup-	1.ccT	nup-
=60-	=60-	=60-	=60-	=60-	=60-	=60-	=60-	=60-	=60-
.	.	.	.	.	.	.	.	.	.
!	!	!LO:TX:t=P:problem=kreska pseudotaktowa	!	!LO:TX:t=P:problem=kreska pseudotaktowa	!	!LO:TX:t=P:problem=kreska pseudotaktowa	!	!LO:TX:t=P:problem=kreska pseudotaktowa	!
2C/	-ti-	2C/	-ti-	2e-X\	-pti-	2g\	-ti-	2cc\	-ti-
!	!	!	!	!	!	!	!	!LO:TX:t=P:problem=kreska pseudotaktowa	!
1GGl;	-js.	1GGl;	-js.	1dl;	-js.	1gl;	-js.	1bnl;	-js.
==	==	==	==	==	==	==	==	==	==
*-	*-	*-	*-	*-	*-	*-	*-	*-	*-
!!!system-decoration: [s1,s2,s3,s4]s5
!!!RDF**kern: < = below
!!!RDF**kern: l = terminal long
!!!ENC: Marta Lawrence
!!!END: 2021-04-05
!!!ENC: Mateusz Solarz
!!!END: 2021-03-11
!!!YEC: Copyright 2022 Narodowy Instytut Fryderyka Chopina (https://polishscores.org)
!!!YEM: License CC-BY-4.0 (https://creativecommons.org/licenses/by/4.0)
